X: 16520
T: Haley's
R: jig
M: 6/8
K: Edorian
|:E2E GEG|BGB e2 f|gfe dBG|EFG AFD|
EBE GEG|BGB e2 f|gfe dBA|Bee e2 d:|
|:gGG Gge|dBG G2 f|gfe dBG|EFG AFD|
E2E GEG|BGB e2 f|gfe dBA|1 Bee e2f:|2 GED E2G||

